X: 19028
T: Into The Wood
R: reel
M: 4/4
K: Dmajor
|:FFFG F2ED|BEED EEEF|DEFA d2(3ABc|dfec dBAG|
FFFG F2ED|BEED EEEF|DEFA dBAF|1 G2EG FDDE:|2 G2EG FDDA||
|:d3e f2ed|Beef e2Bc|dBAF DdcA|BGEF GABc|
dcde f2ed|Beef e2BA|FABc dBAF|1 G2EG FDDA:|2 G2EG FDDE||

